X:1
T:Canon in D (theme)
C:Johann Pachelbel
M:4/4
L:1/4
Q:1/4=90
K:D
D A F#2 | G A B2 | A B c2 | B A G2 | A2 F# G | A2 G A | B2 A B | c2 B c |]
